!!!COM: Bach, Johann Sebastian
!!!CDT: 1685/3//-1750/7/28/
!!!OTL@@DE: O Mensch, bewein' dein' Suende gross
!!!AGN: 4-Part Chorale
!!!SCT: BH 201
!!!SCT: BWV 402
**harm	**root	**kern	**kern	**kern	**kern
!	!	!bass	!tenor	!alto	!soprno
*	*Iorgan	*Iorgan	*Iorgan	*Iorgan	*Iorgan
*M4/4	*M4/4	*M4/4	*M4/4	*M4/4	*M4/4
*met(c)	*met(c)	*met(c)	*met(c)	*met(c)	*met(c)
*MM60	*MM60	*MM60	*MM60	*MM60	*MM60
*k[b-e-a-d-g-c-]	*k[b-e-a-d-g-c-]	*k[b-e-a-d-g-c-]	*k[b-e-a-d-g-c-]	*k[b-e-a-d-g-c-]	*k[b-e-a-d-g-c-]
*G-:	*G-:	*G-:	*G-:	*G-:	*G-:
*>[A,A,B]	*>[A,A,B]	*>[A,A,B]	*>[A,A,B]	*>[A,A,B]	*>[A,A,B]
*>A	*>A	*>A	*>A	*>A	*>A
I	4EE-	4G-	4B-	4d-	4g-
=1	=1	=1	=1	=1	=1
IV	4AA-	8c-	4c-	[4e-	4g-
.	.	8B-	.	.	.
ii	4FF	4A-	4c-	8e-]	4a-
.	.	.	.	16d	.
.	.	.	.	16e-	.
Vb/vi	4GG	4D	4B-	[4f	8b-
.	.	.	.	.	8a-
vi	4CC	[4E-	4B-	8f]	4g-
.	.	.	.	16e-	.
.	.	.	.	16f	.
=2	=2	=2	=2	=2	=2
vi	4CC	4E-]	8e-	[4g-	4b-
.	.	.	8d-	.	.
Vb/iii	4DD	4AA	4c	8g-]	4cc
.	.	.	.	8f	.
iii;	4GG;	4BB-;	4B-;	4f;	4dd-;
iii	4GG	4B-	4f	[4b-	4dd-
=3	=3	=3	=3	=3	=3
IVb	8AA-	8E-	8g-	8b-]	4cc-
V7b	8BB-	8F	8d-	[8a-	.
I	4EE-	4G-	4d-	8a-]	4b-
.	.	.	.	[8g-	.
V7b/V	8FF	8C	8e-	8g-]	4a-
V7b/vi	8GG	8D	8B-	8f	.
vi	4CC	[4E-	4B-	8e-	8g-
.	.	.	.	8f	8a-
=4	=4	=4	=4	=4	=4
vi	4CC	4E-]	8e-	8g-	4b-
.	.	.	8d-	8f	.
V7/V	4FF	4AA-	4e-	4g-	4cc
V;	4BB-;	4D-;	4d-;	4f;	4dd-;
ii	4FF	8A-	[4c-	[4a-	4ee-
.	.	8G-	.	.	.
=5	=5	=5	=5	=5	=5
V7b	8BB-	8F	8c-]	8a-]	4dd-
Ic	8EE-	8D-	4B-	16g-	.
.	.	.	.	16f	.
IVb	8AA-	8E-	.	8g-	4cc-
V7b	8BB-	8F	8A-	[8d-	.
I	4EE-	8G-	[4G-	8d-]	4b-
.	.	8F	.	16g-	.
.	.	.	.	16f	.
IVb	4AA-	8E-	8G-]	[4g-	4cc-
.	.	8D-	8d-	.	.
=6	=6	=6	=6	=6	=6
ii7b	8FF	8C-	8e-	8g-]	2a-
ii	8FF	8AA-	8c-	16f	.
.	.	.	.	16e-	.
V	4BB-	4D-	8A-	4f	.
.	.	.	8d-	.	.
I;	4EE-;	4GG-;	4B-;	4d-;	4g-;
!!linebreak: 3
=:|!	=:|!	=:|!	=:|!	=:|!	=:|!
*>B	*>B	*>B	*>B	*>B	*>B
I	8EE-	8GG-	8B-	8dd-	4gg-
ii7	8FF	8AA-	8c-	8cc-	.
=7	=7	=7	=7	=7	=7
Ib	4EE-	4BB-	4d-	4b-	4gg-
V7b/V	4FF	4C	[4e-	4a-	4gg-
V	4BB-	8D-	8e-]	4a-	4ff
.	.	8E-	16d-	.	.
.	.	.	16c-	.	.
V7d/IV	4EE-	4F-	4B-	4g-	4dd-
=8	=8	=8	=8	=8	=8
IVb	4AA-	8E-	4c-	8g-	4ee-
.	.	8D-	.	8f-	.
IV	4AA-	4C-	4c-	4g-	4ee-
I;	4EE-;	4G-;	4d-;	4g-;	4b-;
vi	4CC	8E-	[4e-	4b-	4gg-
.	.	8D-	.	.	.
=9	=9	=9	=9	=9	=9
V7b/V	4FF	8C	8e-]	4a-	4gg-
.	.	8BB-	8d-	.	.
V7/V	4FF	4AA-	4c	4a-	4gg-
V	4BB-	8D-	8d-	4a-	4ff
.	.	8E-	8c	.	.
Vb	4BB-	4F	[4d-	4a-	4dd-
=10	=10	=10	=10	=10	=10
V7b/V/V	4CC	4G-	8d-]	4b-	4ee-
.	.	.	16c	.	.
.	.	.	16B-	.	.
V/V	4FF	4A-	4c	8a-	4ee-
.	.	.	.	8g-	.
V;	4BB-;	4D-;	4d-;	4f;	4dd-;
I	4EE-	[4G-	4d-	8g-	8b-
.	.	.	.	8a-	8cc-
=11	=11	=11	=11	=11	=11
I	4EE-	8G-]	4g-	4b-	4dd-
.	.	8F-	.	.	.
IVb	4AA-	8E-	4g-	4cc-	4ee-
.	.	8F	.	.	.
I	4EE-	4G-	8g-	4b-	4dd-
.	.	.	[8f-	.	.
Vb/V/V	4CC	4G	8f-]	[4b-	4b-
.	.	.	8e-	.	.
=12	=12	=12	=12	=12	=12
V/V	4FF	4A-	4e-	8b-]	2cc-
.	.	.	.	16a-	.
.	.	.	.	16g-	.
viioD7/vi	4BB	4D	8f	8a-	.
.	.	.	8a-	8f	.
vi;	4CC;	4E-;	4e-;	4g-;	4b-;
IV/IV	4DD-	[4F-	4c-	4a-	4a-
!!linebreak: 3
=13	=13	=13	=13	=13	=13
V7d/IV	4EE-	4F-]	4d-	4g-	4b-
IVb	4AA-	4E-	4e-	4g-	4cc-
V	4BB-	8D-	4f	4a-	4dd-
.	.	8C-	.	.	.
iii	4GG	4BB-	8F	4b-	4dd-
.	.	.	8G	.	.
=14	=14	=14	=14	=14	=14
ii	4FF	4AA-	4A-	8e-	4cc-
.	.	.	.	8f	.
Ib	4EE-	8BB-	4d-	[4g-	4b-
.	.	8C-	.	.	.
V;	4BB-;	4D-;	4d-;	8g-]	4a-;
.	.	.	.	8f;	.
V	4BB-	4d-	4f	4a-	4dd-
=15	=15	=15	=15	=15	=15
Vb/V	4FF	4c	4e-	4a-	4ee-
V7d	4BB-	4c-	[4d-	4a-	4ff
Ib	4EE-	4.B-	8d-]	8b-	4gg-
.	.	.	8e-	8cc	.
iii	4GG	.	4f	[4dd-	4ff
.	.	8A-	.	.	.
=16	=16	=16	=16	=16	=16
V7b/ii	4CC	4G	4B-	4dd-]	4ee-
V7b/iii	4DD	4A	4f	4cc	4ee-
iii;	4GG;	4B-;	4f;	4b-;	4dd-;
IV	4AA-	4c-	4e-	4g-	4g-
=17	=17	=17	=17	=17	=17
V7d	4BB-	8c-	4d-	4f	4a-
.	.	8B-	.	.	.
I	4EE-	8A-	[4d-	4g-	4b-
.	.	8G-	.	.	.
V7b	8BB-	8F	8d-]	8a-	4cc-
V7	8BB-	8D-	8A-	8f	.
I	8EE-	8G-	8B-	8d-	4b-
Ib	8EE-	8BB-	8d-	[8g-	.
=18	=18	=18	=18	=18	=18
ii7b	8FF	4C-	8e-	8g-]	2a-
viioc	8DD	.	8c-	16f	.
.	.	.	.	16e-	.
V	4BB-	4D-	8A-	4f	.
.	.	.	16d-	.	.
.	.	.	16c-	.	.
I;	4EE-;	4GG-;	4B-;	4d-;	4g-;
====	====	====	====	====	====
*-	*-	*-	*-	*-	*-
!!!ONB: Change m.10, b.1 to second inversion from fourth inversion
!!chor2scor: -l 3 -s 0.6 -o %b.pmx
!!!YEC: Copyright 1994, David Huron
!!!YEC: Changes/Additions 2001 by Craig Stuart Sapp
!!!YEN: United States of America
!!!SMA: 371 Bach Chorales, edited by Ludwig Erk, C.F. Peters
!!!PDT: 1850, 1865
!!!ONB: Harmony and Root analysis done manually
